assets/icons/sms-notification.svg

<svg width="24" height="25" viewBox="0 0 24 25" fill="none" xmlns="http://www.w3.org/2000/svg">
<path d="M1.2489 16.1375V9.13751C1.2489 7.24463 1.79319 5.76882 2.86316 4.77521C3.92314 3.79094 5.38393 3.38751 6.9989 3.38751H13.9989C14.4131 3.38751 14.7489 3.7233 14.7489 4.13751C14.7489 4.55173 14.4131 4.88751 13.9989 4.88751H6.9989C5.61395 4.88751 4.57466 5.23415 3.88464 5.87482C3.20469 6.5062 2.7489 7.53046 2.7489 9.13751V16.1375C2.7489 17.7446 3.20469 18.7688 3.88464 19.4002C4.57466 20.0409 5.61395 20.3875 6.9989 20.3875H16.9989C18.3839 20.3875 19.4231 20.0409 20.1132 19.4002C20.7931 18.7688 21.2489 17.7446 21.2489 16.1375V11.1375C21.2489 10.7233 21.5847 10.3875 21.9989 10.3875C22.4131 10.3875 22.7489 10.7233 22.7489 11.1375V16.1375C22.7489 18.0304 22.2046 19.5062 21.1346 20.4998C20.0747 21.4841 18.6139 21.8875 16.9989 21.8875H6.9989C5.38393 21.8875 3.92314 21.4841 2.86316 20.4998C1.79319 19.5062 1.2489 18.0304 1.2489 16.1375Z" fill="#111111"/>
<path d="M6.41517 9.16981C6.65744 8.86649 7.08694 8.80097 7.40638 9.00672L7.46888 9.05165L10.5978 11.5507L10.7462 11.6571C11.5155 12.1511 12.7049 12.1153 13.4142 11.5507L14.5939 10.6112C14.9179 10.3531 15.3895 10.4064 15.6476 10.7304C15.9057 11.0543 15.8524 11.526 15.5285 11.7841L14.3488 12.7245H14.3478C13.0444 13.7618 10.9675 13.7619 9.66419 12.7245L9.66322 12.7235L6.53334 10.2235L6.47572 10.1727C6.20413 9.90676 6.17291 9.47326 6.41517 9.16981Z" fill="#111111"/>
<path d="M21.2489 6.13757C21.2489 5.17108 20.4654 4.38757 19.4989 4.38757C18.5324 4.38757 17.7489 5.17108 17.7489 6.13757C17.7489 7.10407 18.5324 7.88757 19.4989 7.88757C20.4654 7.88757 21.2489 7.10407 21.2489 6.13757ZM22.7489 6.13757C22.7489 7.9325 21.2938 9.38757 19.4989 9.38757C17.704 9.38757 16.2489 7.9325 16.2489 6.13757C16.2489 4.34265 17.704 2.88757 19.4989 2.88757C21.2938 2.88757 22.7489 4.34265 22.7489 6.13757Z" fill="#111111"/>
</svg>

<svg xmlns="http://www.w3.org/2000/svg" width="24" height="25" fill="none" viewBox="0 0 24 25"><path fill="#111" d="M1.249 16.138v-7c0-1.893.544-3.37 1.614-4.363C3.923 3.791 5.383 3.388 7 3.388h7a.75.75 0 0 1 0 1.5H7c-1.385 0-2.424.346-3.114.987-.68.631-1.136 1.655-1.136 3.263v7c0 1.607.456 2.63 1.136 3.262.69.64 1.729.988 3.114.988h10c1.385 0 2.424-.347 3.114-.988.68-.631 1.136-1.655 1.136-3.262v-5a.75.75 0 0 1 1.5 0v5c0 1.892-.544 3.368-1.614 4.362-1.06.984-2.521 1.387-4.136 1.387H7c-1.615 0-3.076-.403-4.136-1.387-1.07-.994-1.614-2.47-1.614-4.363"/><path fill="#111" d="M6.415 9.17a.75.75 0 0 1 .991-.163l.063.045 3.129 2.499.148.106c.77.494 1.959.458 2.668-.106l1.18-.94a.75.75 0 1 1 .934 1.173l-1.18.94c-1.304 1.038-3.38 1.038-4.684 0l-3.13-2.5-.058-.051a.75.75 0 0 1-.06-1.003m14.833-3.032a1.75 1.75 0 1 0-3.5 0 1.75 1.75 0 0 0 3.5 0m1.5 0a3.25 3.25 0 1 1-6.5 0 3.25 3.25 0 0 1 6.5 0"/></svg>
